X: 32814
T: Popcorn Behaviour
R: reel
M: 4/4
K: Bminor
ga|:b2 fg fdBd|cBcd cAFA|BFBd BF (3Bcd|cB cd c2 ga|
b2 fg fdBd|cBcd cAFA|EGBd edBG|1 FDEC B,2 ga:|2 FDEC B,CDE||
|:FB,B,F GB,B,G|FB,B,F EB,B,E|B,CDE FEFB|AFDE FGFE|
FB,B,F GB,B,G|^GB,B,^G =GB,B,G|EGBd edBG|1 FDEC B,CDE:|2 FDEC B,2 ga||

